; HEADER_BLOCK_START
; generated by OrcaSlicer 2.0.0 on 2024-09-16 at 19:00:44
; total layer number: 61
; filament_density: 1.24
; filament_diameter: 1.75
; max_z_height: 7.32
; HEADER_BLOCK_END

; THUMBNAIL_BLOCK_START

;
; THUMBNAIL_BLOCK_END

; external perimeters extrusion width = 0.25mm
; perimeters extrusion width = 0.25mm
; infill extrusion width = 0.25mm
; solid infill extrusion width = 0.25mm
; top infill extrusion width = 0.25mm
; first layer extrusion width = 0.25mm

; EXECUTABLE_BLOCK_START
M73 P0 R7
;TYPE:Custom
; # # # # # # START Header
START_PRINT EXTRUDER=315 BED=100 
; # # # # # # END Header
G90
G21
M83 ; use relative distances for extrusion
; filament start gcode
M106 S0
;LAYER_CHANGE
;Z:0.12
;HEIGHT:0.12
; BEFORE_LAYER_CHANGE
; Z = 0.12 mm
M117 Layer 1 of 61 ; klipper timestamp
G92 E0

G1 E-4.5 F2100
;_SET_FAN_SPEED_CHANGING_LAYER
SET_VELOCITY_LIMIT ACCEL=500 ACCEL_TO_DECEL=250
G1 X78.435 Y50.409 F9000
G1 Z.12
G1 E4.5 F2100
;TYPE:Skirt
;WIDTH:0.25
G1 F1236
G1 X79.527 Y49.174 E.01734
G1 X81.489 Y48.562 E.02161
G1 X85.009 Y48.562 E.03702
G1 X86.61 Y48.956 E.01734
G1 X87.845 Y50.048 E.01734
G1 X88.458 Y52.01 E.02161
G1 X88.458 Y56.01 E.04207
G1 X88.064 Y57.611 E.01734
G1 X86.971 Y58.846 E.01734
G1 X85.009 Y59.459 E.02161
G1 X81.489 Y59.459 E.03702
G1 X79.888 Y59.065 E.01734
G1 X78.653 Y57.972 E.01734
G1 X78.04 Y56.01 E.02161
G1 X78.04 Y52.01 E.04207
G1 X78.429 Y50.433 E.01708
G1 X78.652 Y50.49 F9000
G1 F1236
G1 X78.659 Y50.466 E.00026
G1 X79.744 Y49.299 E.01676
G1 X81.489 Y48.786 E.01913
G1 X85.009 Y48.786 E.03702
G1 X86.553 Y49.18 E.01676
G1 X87.72 Y50.265 E.01676
G1 X88.234 Y52.01 E.01913
G1 X88.234 Y56.01 E.04207
G1 X87.84 Y57.554 E.01676
G1 X86.755 Y58.721 E.01676
G1 X85.009 Y59.235 E.01913
G1 X81.489 Y59.235 E.03702
M73 P1 R7
G1 X79.945 Y58.841 E.01676
G1 X78.778 Y57.756 E.01676
G1 X78.265 Y56.01 E.01913
G1 X78.265 Y52.01 E.04207
G1 X78.646 Y50.515 E.01623
; printing object tensile_dogbone_virgin A.1.stp id:0 copy 0
G1 X81.614 Y52.135 F9000
;TYPE:Outer wall
;WIDTH:0.249999
G1 F900
G1 X84.884 Y52.135 E.03439
M73 P1 R6
G1 X84.884 Y55.885 E.03944
G1 X81.614 Y55.885 E.03439
G1 X81.614 Y52.16 E.03917
G1 X84.839 Y52.65 F9000
;TYPE:Bottom surface
;WIDTH:0.257608
G1 F1236
G1 X84.471 Y52.281 E.00382
G1 X84.143 Y52.281 E.00205
G1 X84.739 Y52.877 E.00706
G1 X84.739 Y53.204 E.00205
G1 X83.815 Y52.281 E.01192
G1 X83.487 Y52.281 E.00205
G1 X84.739 Y53.532 E.01686
G1 X84.739 Y53.86 E.00205
G1 X83.159 Y52.281 E.02184
G1 X82.831 Y52.281 E.00205
G1 X84.739 Y54.188 E.02684
G1 X84.739 Y54.516 E.00205
G1 X82.504 Y52.281 E.03185
G1 X82.176 Y52.281 E.00205
G1 X84.739 Y54.844 E.03686
G1 X84.739 Y55.172 E.00205
G1 X81.848 Y52.281 E.04187
G1 X81.76 Y52.281 E.00021
G1 X81.76 Y52.521 E.0013
G1 X84.739 Y55.5 E.04322
G1 X84.739 Y55.74 E.0013
G1 X84.65 Y55.74 E.00021
G1 X81.76 Y52.849 E.04187
G1 X81.76 Y53.177 E.00205
G1 X84.323 Y55.74 E.03686
G1 X83.995 Y55.74 E.00205
G1 X81.76 Y53.505 E.03185
G1 X81.76 Y53.832 E.00205
G1 X83.667 Y55.74 E.02684
G1 X83.339 Y55.74 E.00205
G1 X81.76 Y54.16 E.02184
G1 X81.76 Y54.488 E.00205
G1 X83.011 Y55.74 E.01686
G1 X82.683 Y55.74 E.00205
G1 X81.76 Y54.816 E.01192
G1 X81.76 Y55.144 E.00205
G1 X82.355 Y55.74 E.00706
G1 X82.027 Y55.74 E.00205
G1 X81.659 Y55.371 E.00381
; stop printing object tensile_dogbone_virgin A.1.stp id:0 copy 0
M106 S255
;LAYER_CHANGE
;Z:0.24
;HEIGHT:0.12
; BEFORE_LAYER_CHANGE
; Z = 0.24 mm
M117 Layer 2 of 61 ; klipper timestamp
G92 E0

G1 E-4.22 F2100
;WIPE_START
M73 P2 R6
G1 F1500
G1 X81.8 Y55.512 E-.28
;WIPE_END
;_SET_FAN_SPEED_CHANGING_LAYER
SET_VELOCITY_LIMIT ACCEL=1500 ACCEL_TO_DECEL=750
M104 S305 ; set nozzle temperature
M140 S100 ; set bed temperature
; printing object tensile_dogbone_virgin A.1.stp id:0 copy 0
G1 X81.614 Y52.135 Z.24 F9000
G1 E4.5 F2100
SET_VELOCITY_LIMIT ACCEL=500 ACCEL_TO_DECEL=250
;TYPE:Outer wall
;WIDTH:0.249999
G1 F600
G1 X84.886 Y52.137 E.03441
G1 X84.886 Y55.885 E.03942
G1 X81.614 Y55.885 E.03441
G1 X81.614 Y52.16 E.03917
G1 X82.583 Y53.049 F9000
SET_VELOCITY_LIMIT ACCEL=1500 ACCEL_TO_DECEL=750
;TYPE:Internal solid infill
;WIDTH:0.352846
G1 F600
G1 X82.521 Y53.084 E.00019
G1 X82.583 Y53.12 E.00019
G1 X82.591 Y53.106 E.00001
G1 X82.287 Y53.75 F9000
;WIDTH:0.249999
G1 F600
G1 X83.228 Y52.809 E.01178
G1 X82.287 Y52.808 E.00781
G1 X82.287 Y53.725 E.00757
G1 X82.062 Y54.291 F9000
G1 F600
G1 X83.769 Y52.585 E.023
G1 X82.062 Y52.584 E.01565
G1 X82.062 Y54.266 E.0154
G1 X81.838 Y54.833 F9000
G1 F600
G1 X84.31 Y52.361 E.0343
G1 X81.838 Y52.36 E.02361
G1 X81.838 Y54.808 E.02336
G1 X81.803 Y55.84 F9000
;WIDTH:0.264954
G1 F600
G1 X84.74 Y52.904 E.04393
G1 X84.74 Y52.565 E.00221
G1 X81.76 Y55.545 E.04461
M73 P3 R6
G1 X81.76 Y55.207 E.00221
G1 X84.785 Y52.182 E.04532
G1 X83.98 Y54.933 F9000
;WIDTH:0.300424
G1 F600
G1 X83.929 Y54.963 E.00012
G1 X83.985 Y54.985 E.00012
G1 X84.213 Y54.361 F9000
;WIDTH:0.249999
G1 F600
G1 X83.361 Y55.213 E.01049
G1 X84.213 Y55.213 E.00692
G1 X84.213 Y54.386 E.00667
G1 X84.437 Y53.819 F9000
G1 F600
G1 X82.82 Y55.437 E.02169
G1 X84.437 Y55.437 E.01473
G1 X84.437 Y53.844 E.01447
G1 X84.661 Y53.278 F9000
G1 F600
G1 X82.278 Y55.661 E.03299
G1 X84.661 Y55.661 E.02269
G1 X84.661 Y53.303 E.02243
; stop printing object tensile_dogbone_virgin A.1.stp id:0 copy 0
;LAYER_CHANGE
;Z:0.36
;HEIGHT:0.12
; BEFORE_LAYER_CHANGE
; Z = 0.36 mm
M117 Layer 3 of 61 ; klipper timestamp
G92 E0

G1 E-4.36 F2100
;WIPE_START
G1 F3000
G1 X84.661 Y53.503 E-.14
;WIPE_END
;_SET_FAN_SPEED_CHANGING_LAYER
; printing object tensile_dogbone_virgin A.1.stp id:0 copy 0
G1 X81.614 Y52.135 Z.36 F9000
G1 E4.5 F2100
SET_VELOCITY_LIMIT ACCEL=500 ACCEL_TO_DECEL=250
;TYPE:Outer wall
G1 F600
G1 X84.887 Y52.135 E.03442
G1 X84.887 Y55.885 E.03944
G1 X81.614 Y55.885 E.03442
G1 X81.614 Y52.16 E.03917
M73 P4 R6
G1 X81.659 Y52.713 F9000
SET_VELOCITY_LIMIT ACCEL=1500 ACCEL_TO_DECEL=750
;TYPE:Internal solid infill
;WIDTH:0.264955
G1 F600
G1 X84.686 Y55.74 E.04535
G1 X84.741 Y55.74 E.00009
G1 X84.741 Y55.457 E.00172
G1 X81.76 Y52.475 E.04463
G1 X81.76 Y52.281 E.00095
G1 X81.904 Y52.281 E.00055
G1 X84.842 Y55.219 E.04395
G1 X82.583 Y54.901 F9000
;WIDTH:0.353156
G1 F600
G1 X82.522 Y54.937 E.00019
G1 X82.583 Y54.972 E.00019
G1 X82.591 Y54.958 E.00001
G1 X82.287 Y54.271 F9000
;WIDTH:0.249999
G1 F600
G1 X82.287 Y55.213 E.00782
G1 X83.228 Y55.213 E.00782
G1 X82.304 Y54.288 E.01154
G1 X82.062 Y53.729 F9000
G1 F600
G1 X82.062 Y55.437 E.01566
G1 X83.77 Y55.437 E.01566
G1 X82.08 Y53.747 E.02276
G1 X81.838 Y53.188 F9000
G1 F600
G1 X81.838 Y55.661 E.02363
G1 X84.311 Y55.661 E.02363
G1 X81.856 Y53.206 E.03406
G1 X83.981 Y53.028 F9000
;WIDTH:0.301188
G1 F600
G1 X83.93 Y53.058 E.00012
G1 X83.986 Y53.079 E.00012
G1 X84.214 Y53.661 F9000
;WIDTH:0.249999
G1 F600
G1 X84.214 Y52.808 E.00693
G1 X83.361 Y52.808 E.00693
G1 X84.196 Y53.643 E.01026
G1 X84.438 Y54.202 F9000
G1 F600
G1 X84.438 Y52.584 E.01474
G1 X82.82 Y52.584 E.01474
G1 X84.421 Y54.185 E.02145
M73 P5 R6
G1 X84.662 Y54.744 F9000
G1 F600
G1 X84.662 Y52.36 E.0227
G1 X82.278 Y52.36 E.0227
G1 X84.645 Y54.726 E.03275
; stop printing object tensile_dogbone_virgin A.1.stp id:0 copy 0
;LAYER_CHANGE
;Z:0.48
;HEIGHT:0.12
; BEFORE_LAYER_CHANGE
; Z = 0.48 mm
M117 Layer 4 of 61 ; klipper timestamp
G92 E0

G1 E-4.36 F2100
;WIPE_START
G1 F3000
G1 X84.503 Y54.585 E-.14
;WIPE_END
;_SET_FAN_SPEED_CHANGING_LAYER
; printing object tensile_dogbone_virgin A.1.stp id:0 copy 0
G1 X81.614 Y52.135 Z.48 F9000
G1 E4.5 F2100
SET_VELOCITY_LIMIT ACCEL=500 ACCEL_TO_DECEL=250
;TYPE:Outer wall
G1 F600
G1 X84.888 Y52.135 E.03443
G1 X84.888 Y55.885 E.03944
G1 X81.614 Y55.885 E.03443
G1 X81.614 Y52.16 E.03917
G1 X82.583 Y53.048 F9000
SET_VELOCITY_LIMIT ACCEL=1500 ACCEL_TO_DECEL=750
;TYPE:Internal solid infill
;WIDTH:0.353154
G1 F600
G1 X82.522 Y53.084 E.00019
G1 X82.583 Y53.119 E.00019
G1 X82.591 Y53.105 E.00001
G1 X82.287 Y53.75 F9000
;WIDTH:0.249999
G1 F600
G1 X83.228 Y52.808 E.01179
G1 X82.287 Y52.808 E.00782
G1 X82.287 Y53.725 E.00757
G1 X82.062 Y54.291 F9000
G1 F600
G1 X83.77 Y52.584 E.02302
G1 X82.062 Y52.584 E.01566
G1 X82.062 Y54.266 E.0154
G1 X81.838 Y54.832 F9000
G1 F600
G1 X84.311 Y52.36 E.03432
G1 X81.838 Y52.36 E.02363
M73 P6 R6
G1 X81.838 Y54.807 E.02337
G1 X81.803 Y55.84 F9000
;WIDTH:0.264954
G1 F600
G1 X84.742 Y52.901 E.04397
G1 X84.742 Y52.563 E.00221
G1 X81.76 Y55.545 E.04465
G1 X81.76 Y55.207 E.00221
G1 X84.787 Y52.18 E.04535
G1 X83.982 Y54.932 F9000
;WIDTH:0.3019
G1 F600
G1 X83.93 Y54.962 E.00012
G1 X83.987 Y54.984 E.00012
G1 X84.215 Y54.358 F9000
;WIDTH:0.249999
G1 F600
G1 X83.361 Y55.213 E.01053
G1 X84.215 Y55.213 E.00695
G1 X84.215 Y54.383 E.0067
G1 X84.439 Y53.817 F9000
G1 F600
G1 X82.82 Y55.437 E.02173
G1 X84.439 Y55.437 E.01476
G1 X84.439 Y53.842 E.0145
G1 X84.664 Y53.276 F9000
G1 F600
G1 X82.278 Y55.661 E.03303
G1 X84.664 Y55.661 E.02271
G1 X84.664 Y53.301 E.02245
; stop printing object tensile_dogbone_virgin A.1.stp id:0 copy 0
;LAYER_CHANGE
;Z:0.6
;HEIGHT:0.12
; BEFORE_LAYER_CHANGE
; Z = 0.6 mm
M117 Layer 5 of 61 ; klipper timestamp
G92 E0

G1 E-4.36 F2100
;WIPE_START
G1 F3000
G1 X84.664 Y53.501 E-.14
;WIPE_END
;_SET_FAN_SPEED_CHANGING_LAYER
; printing object tensile_dogbone_virgin A.1.stp id:0 copy 0
G1 X81.614 Y52.135 Z.6 F9000
G1 E4.5 F2100
SET_VELOCITY_LIMIT ACCEL=500 ACCEL_TO_DECEL=250
;TYPE:Outer wall
G1 F600
G1 X84.889 Y52.135 E.03444
M73 P7 R6
G1 X84.889 Y55.885 E.03944
G1 X81.614 Y55.885 E.03444
G1 X81.614 Y52.16 E.03917
G1 X81.659 Y52.713 F9000
SET_VELOCITY_LIMIT ACCEL=1500 ACCEL_TO_DECEL=750
;TYPE:Internal solid infill
;WIDTH:0.264955
G1 F600
G1 X84.686 Y55.74 E.04535
G1 X84.743 Y55.74 E.0001
G1 X84.743 Y55.459 E.0017
G1 X81.76 Y52.475 E.04467
G1 X81.76 Y52.281 E.00095
G1 X81.904 Y52.281 E.00055
G1 X84.844 Y55.222 E.04399
G1 X82.583 Y54.901 F9000
;WIDTH:0.353156
G1 F600
G1 X82.522 Y54.937 E.00019
G1 X82.583 Y54.972 E.00019
G1 X82.591 Y54.958 E.00001
G1 X82.287 Y54.271 F9000
;WIDTH:0.249999
G1 F600
G1 X82.287 Y55.213 E.00782
G1 X83.228 Y55.213 E.00782
G1 X82.304 Y54.288 E.01154
G1 X82.062 Y53.729 F9000
G1 F600
G1 X82.062 Y55.437 E.01566
G1 X83.77 Y55.437 E.01566
G1 X82.08 Y53.747 E.02276
G1 X81.838 Y53.188 F9000
G1 F600
G1 X81.838 Y55.661 E.02363
G1 X84.311 Y55.661 E.02363
G1 X81.856 Y53.206 E.03406
M73 P8 R6
G1 X83.983 Y53.029 F9000
;WIDTH:0.30261
G1 F600
G1 X83.931 Y53.059 E.00012
G1 X83.988 Y53.08 E.00012
G1 X84.216 Y53.663 F9000
;WIDTH:0.249999
G1 F600
G1 X84.216 Y52.808 E.00696
G1 X83.361 Y52.808 E.00696
G1 X84.199 Y53.646 E.01029
G1 X84.441 Y54.205 F9000
G1 F600
G1 X84.441 Y52.584 E.01477
G1 X82.82 Y52.584 E.01477
G1 X84.423 Y54.187 E.02148
G1 X84.665 Y54.746 F9000
G1 F600
G1 X84.665 Y52.36 E.02273
G1 X82.278 Y52.36 E.02273
G1 X84.647 Y54.729 E.03278
; stop printing object tensile_dogbone_virgin A.1.stp id:0 copy 0
;LAYER_CHANGE
;Z:0.72
;HEIGHT:0.12
; BEFORE_LAYER_CHANGE
; Z = 0.72 mm
M117 Layer 6 of 61 ; klipper timestamp
G92 E0

G1 E-4.36 F2100
;WIPE_START
G1 F3000
G1 X84.506 Y54.587 E-.14
;WIPE_END
;_SET_FAN_SPEED_CHANGING_LAYER
; printing object tensile_dogbone_virgin A.1.stp id:0 copy 0
G1 X81.614 Y52.135 Z.72 F9000
G1 E4.5 F2100
SET_VELOCITY_LIMIT ACCEL=500 ACCEL_TO_DECEL=250
;TYPE:Outer wall
G1 F600
G1 X84.89 Y52.137 E.03446
G1 X84.89 Y55.885 E.03942
G1 X81.614 Y55.885 E.03446
G1 X81.614 Y52.16 E.03917
G1 X82.583 Y53.049 F9000
SET_VELOCITY_LIMIT ACCEL=1500 ACCEL_TO_DECEL=750
;TYPE:Internal solid infill
;WIDTH:0.352906
G1 F600
G1 X82.522 Y53.084 E.00019
G1 X82.583 Y53.12 E.00019
G1 X82.591 Y53.106 E.00001
G1 X82.287 Y53.75 F9000
;WIDTH:0.249999
G1 F600
G1 X83.228 Y52.809 E.01178
G1 X82.287 Y52.808 E.00782
G1 X82.287 Y53.725 E.00757
G1 X82.062 Y54.291 F9000
G1 F600
G1 X83.769 Y52.585 E.023
M73 P9 R6
G1 X82.062 Y52.584 E.01565
G1 X82.062 Y54.266 E.0154
G1 X81.838 Y54.833 F9000
G1 F600
G1 X84.31 Y52.361 E.0343
G1 X81.838 Y52.36 E.02361
G1 X81.838 Y54.808 E.02336
G1 X81.803 Y55.84 F9000
;WIDTH:0.264955
G1 F600
G1 X84.745 Y52.899 E.044
G1 X84.745 Y52.56 E.00221
G1 X81.76 Y55.545 E.04468
G1 X81.76 Y55.207 E.00221
G1 X84.785 Y52.182 E.04532
G1 X83.984 Y54.932 F9000
;WIDTH:0.303276
G1 F600
G1 X83.932 Y54.962 E.00012
G1 X83.989 Y54.983 E.00012
G1 X84.218 Y54.356 F9000
;WIDTH:0.249999
G1 F600
G1 X83.361 Y55.213 E.01056
G1 X84.218 Y55.213 E.00697
G1 X84.218 Y54.381 E.00672
G1 X84.442 Y53.815 F9000
G1 F600
G1 X82.82 Y55.437 E.02176
G1 X84.442 Y55.437 E.01478
G1 X84.442 Y53.84 E.01452
G1 X84.666 Y53.273 F9000
G1 F600
G1 X82.278 Y55.661 E.03306
G1 X84.666 Y55.661 E.02274
M73 P10 R6
G1 X84.666 Y53.298 E.02248
; stop printing object tensile_dogbone_virgin A.1.stp id:0 copy 0
;LAYER_CHANGE
;Z:0.84
;HEIGHT:0.12
; BEFORE_LAYER_CHANGE
; Z = 0.84 mm
M117 Layer 7 of 61 ; klipper timestamp
G92 E0

G1 E-4.36 F2100
;WIPE_START
G1 F3000
G1 X84.666 Y53.498 E-.14
;WIPE_END
;_SET_FAN_SPEED_CHANGING_LAYER
; printing object tensile_dogbone_virgin A.1.stp id:0 copy 0
G1 X81.614 Y52.135 Z.84 F9000
G1 E4.5 F2100
SET_VELOCITY_LIMIT ACCEL=500 ACCEL_TO_DECEL=250
;TYPE:Outer wall
G1 F600
G1 X84.892 Y52.135 E.03447
G1 X84.892 Y55.885 E.03944
G1 X81.614 Y55.885 E.03447
G1 X81.614 Y52.16 E.03917
G1 X81.659 Y52.713 F9000
SET_VELOCITY_LIMIT ACCEL=1500 ACCEL_TO_DECEL=750
;TYPE:Internal solid infill
;WIDTH:0.264955
G1 F600
G1 X84.686 Y55.74 E.04535
G1 X84.746 Y55.74 E.0001
G1 X84.746 Y55.461 E.00168
G1 X81.76 Y52.475 E.0447
G1 X81.76 Y52.281 E.00095
G1 X81.904 Y52.281 E.00055
G1 X84.847 Y55.224 E.04402
G1 X82.583 Y54.901 F9000
;WIDTH:0.353156
G1 F600
G1 X82.522 Y54.937 E.00019
G1 X82.583 Y54.972 E.00019
G1 X82.591 Y54.958 E.00001
G1 X82.287 Y54.271 F9000
;WIDTH:0.249999
G1 F600
G1 X82.287 Y55.213 E.00782
G1 X83.228 Y55.213 E.00782
G1 X82.304 Y54.288 E.01154
G1 X82.062 Y53.729 F9000
G1 F600
G1 X82.062 Y55.437 E.01566
G1 X83.77 Y55.437 E.01566
M73 P11 R6
G1 X82.08 Y53.747 E.02276
G1 X81.838 Y53.188 F9000
G1 F600
G1 X81.838 Y55.661 E.02363
G1 X84.311 Y55.661 E.02363
G1 X81.856 Y53.206 E.03406
G1 X83.985 Y53.029 F9000
;WIDTH:0.30403
G1 F600
G1 X83.933 Y53.059 E.00012
G1 X83.99 Y53.081 E.00012
G1 X84.219 Y53.666 F9000
;WIDTH:0.249999
G1 F600
G1 X84.219 Y52.808 E.00698
G1 X83.361 Y52.808 E.00698
G1 X84.201 Y53.648 E.01033
G1 X84.443 Y54.207 F9000
G1 F600
G1 X84.443 Y52.584 E.01479
G1 X82.82 Y52.584 E.01479
G1 X84.425 Y54.19 E.02152
G1 X84.667 Y54.749 F9000
G1 F600
G1 X84.667 Y52.36 E.02275
G1 X82.278 Y52.36 E.02275
G1 X84.65 Y54.731 E.03282
; stop printing object tensile_dogbone_virgin A.1.stp id:0 copy 0
;LAYER_CHANGE
;Z:0.96
;HEIGHT:0.12
; BEFORE_LAYER_CHANGE
; Z = 0.96 mm
M117 Layer 8 of 61 ; klipper timestamp
G92 E0

G1 E-4.36 F2100
;WIPE_START
G1 F3000
G1 X84.508 Y54.59 E-.14
;WIPE_END
;_SET_FAN_SPEED_CHANGING_LAYER
; printing object tensile_dogbone_virgin A.1.stp id:0 copy 0
G1 X81.614 Y52.135 Z.96 F9000
G1 E4.5 F2100
SET_VELOCITY_LIMIT ACCEL=500 ACCEL_TO_DECEL=250
;TYPE:Outer wall
G1 F600
G1 X84.893 Y52.135 E.03448
G1 X84.893 Y55.885 E.03944
G1 X81.614 Y55.885 E.03448
M73 P12 R6
G1 X81.614 Y52.16 E.03917
G1 X82.583 Y53.048 F9000
SET_VELOCITY_LIMIT ACCEL=1500 ACCEL_TO_DECEL=750
;TYPE:Internal solid infill
;WIDTH:0.353154
G1 F600
G1 X82.522 Y53.084 E.00019
G1 X82.583 Y53.119 E.00019
G1 X82.591 Y53.105 E.00001
G1 X82.287 Y53.75 F9000
;WIDTH:0.249999
G1 F600
G1 X83.228 Y52.808 E.01179
G1 X82.287 Y52.808 E.00782
G1 X82.287 Y53.725 E.00757
G1 X82.062 Y54.291 F9000
G1 F600
G1 X83.77 Y52.584 E.02302
G1 X82.062 Y52.584 E.01566
G1 X82.062 Y54.266 E.0154
G1 X81.838 Y54.832 F9000
G1 F600
G1 X84.311 Y52.36 E.03432
G1 X81.838 Y52.36 E.02363
G1 X81.838 Y54.807 E.02337
G1 X81.803 Y55.84 F9000
;WIDTH:0.264954
G1 F600
G1 X84.747 Y52.896 E.04404
G1 X84.747 Y52.558 E.00221
G1 X81.76 Y55.545 E.04472
G1 X81.76 Y55.207 E.00221
G1 X84.787 Y52.18 E.04535
G1 X83.986 Y54.931 F9000
;WIDTH:0.30474
G1 F600
G1 X83.934 Y54.961 E.00012
G1 X83.991 Y54.983 E.00012
G1 X84.22 Y54.353 F9000
;WIDTH:0.249999
G1 F600
G1 X83.361 Y55.213 E.0106
G1 X84.22 Y55.213 E.007
G1 X84.22 Y54.378 E.00675
G1 X84.444 Y53.812 F9000
G1 F600
G1 X82.82 Y55.437 E.0218
M73 P13 R6
G1 X84.444 Y55.437 E.01481
G1 X84.444 Y53.837 E.01455
G1 X84.669 Y53.271 F9000
G1 F600
G1 X82.278 Y55.661 E.0331
