; HEADER_BLOCK_START
; generated by OrcaSlicer 2.0.0 on 2024-09-16 at 19:00:44
; total layer number: 61
; filament_density: 1.24
; filament_diameter: 1.75
; max_z_height: 7.32
; HEADER_BLOCK_END

; THUMBNAIL_BLOCK_START

;
; THUMBNAIL_BLOCK_END

; external perimeters extrusion width = 0.25mm
; perimeters extrusion width = 0.25mm
; infill extrusion width = 0.25mm
; solid infill extrusion width = 0.25mm
; top infill extrusion width = 0.25mm
; first layer extrusion width = 0.25mm


; HEADER PINNING PARAMETERS
; pin_positions: [(3.25, 2.0), (6.75, 2.0)]
; pin_height_mm: 0.6
; pin_dimension: 0.5
; layer_height: 0.12
; pin_height_layers: 5
; total_layers: 61
; retract_amount: 0.1
; z_lift: 0.2
; xy_speed: 150.0
; z_drop_speed: 10.0
; pin_speed: 25.0
; parts_dict: [{'name': 'part_1', 'xy': (0.0, 0.0), 'rotation': 0.0}, {'name': 'part_2', 'xy': (10.0, 10.0), 'rotation': 0.0}]

; EXECUTABLE_BLOCK_START
M73
;TYPE:Custom
; # # # # # # START Header
START_PRINT EXTRUDER=315 BED=100
; # # # # # # END Header
G90
G21
M83  use relative distances for extrusion
; filament start gcode
M106
;LAYER_CHANGE
;Z:0.12
;HEIGHT:0.12
; BEFORE_LAYER_CHANGE
; Z = 0.12 mm
M117
G92 E0.0

G1 E-4.5 F2100.0
;_SET_FAN_SPEED_CHANGING_LAYER
SET_VELOCITY_LIMIT ACCEL=500 ACCEL_TO_DECEL=250
G1 X78.435 Y50.409 F9000.0
G1 Z0.12
G1 E4.5 F2100.0
;TYPE:Skirt
;WIDTH:0.25
G1 F1236.0
G1 X79.527 Y49.174 E0.01734
G1 X81.489 Y48.562 E0.02161
G1 X85.009 Y48.562 E0.03702
G1 X86.61 Y48.956 E0.01734
G1 X87.845 Y50.048 E0.01734
G1 X88.458 Y52.01 E0.02161
G1 X88.458 Y56.01 E0.04207
G1 X88.064 Y57.611 E0.01734
G1 X86.971 Y58.846 E0.01734
G1 X85.009 Y59.459 E0.02161
G1 X81.489 Y59.459 E0.03702
G1 X79.888 Y59.065 E0.01734
G1 X78.653 Y57.972 E0.01734
G1 X78.04 Y56.01 E0.02161
G1 X78.04 Y52.01 E0.04207
G1 X78.429 Y50.433 E0.01708
G1 X78.652 Y50.49 F9000.0
G1 F1236.0
G1 X78.659 Y50.466 E0.00026
G1 X79.744 Y49.299 E0.01676
G1 X81.489 Y48.786 E0.01913
G1 X85.009 Y48.786 E0.03702
G1 X86.553 Y49.18 E0.01676
G1 X87.72 Y50.265 E0.01676
G1 X88.234 Y52.01 E0.01913
G1 X88.234 Y56.01 E0.04207
G1 X87.84 Y57.554 E0.01676
G1 X86.755 Y58.721 E0.01676
G1 X85.009 Y59.235 E0.01913
G1 X81.489 Y59.235 E0.03702
M73
G1 X79.945 Y58.841 E0.01676
G1 X78.778 Y57.756 E0.01676
G1 X78.265 Y56.01 E0.01913
G1 X78.265 Y52.01 E0.04207
G1 X78.646 Y50.515 E0.01623
; printing object tensile_dogbone_virgin A.1.stp id:0 copy 0
G1 X81.614 Y52.135 F9000.0
;TYPE:Outer wall
;WIDTH:0.249999
G1 F900.0
G1 X84.884 Y52.135 E0.03439
M73
G1 X84.884 Y55.885 E0.03944
G1 X81.614 Y55.885 E0.03439
G1 X81.614 Y52.16 E0.03917
G1 X84.839 Y52.65 F9000.0
;TYPE:Bottom surface
;WIDTH:0.257608
G1 F1236.0
G1 X84.471 Y52.281 E0.00382
G1 X84.143 Y52.281 E0.00205
G1 X84.739 Y52.877 E0.00706
G1 X84.739 Y53.204 E0.00205
G1 X83.815 Y52.281 E0.01192
G1 X83.487 Y52.281 E0.00205
G1 X84.739 Y53.532 E0.01686
G1 X84.739 Y53.86 E0.00205
G1 X83.159 Y52.281 E0.02184
G1 X82.831 Y52.281 E0.00205
G1 X84.739 Y54.188 E0.02684
G1 X84.739 Y54.516 E0.00205
G1 X82.504 Y52.281 E0.03185
G1 X82.176 Y52.281 E0.00205
G1 X84.739 Y54.844 E0.03686
G1 X84.739 Y55.172 E0.00205
G1 X81.848 Y52.281 E0.04187
G1 X81.76 Y52.281 E0.00021
G1 X81.76 Y52.521 E0.0013
G1 X84.739 Y55.5 E0.04322
G1 X84.739 Y55.74 E0.0013
G1 X84.65 Y55.74 E0.00021
G1 X81.76 Y52.849 E0.04187
G1 X81.76 Y53.177 E0.00205
G1 X84.323 Y55.74 E0.03686
G1 X83.995 Y55.74 E0.00205
G1 X81.76 Y53.505 E0.03185
G1 X81.76 Y53.832 E0.00205
G1 X83.667 Y55.74 E0.02684
G1 X83.339 Y55.74 E0.00205
G1 X81.76 Y54.16 E0.02184
G1 X81.76 Y54.488 E0.00205
G1 X83.011 Y55.74 E0.01686
G1 X82.683 Y55.74 E0.00205
G1 X81.76 Y54.816 E0.01192
G1 X81.76 Y55.144 E0.00205
G1 X82.355 Y55.74 E0.00706
G1 X82.027 Y55.74 E0.00205
G1 X81.659 Y55.371 E0.00381
; stop printing object tensile_dogbone_virgin A.1.stp id:0 copy 0
M106
;LAYER_CHANGE
;Z:0.24
;HEIGHT:0.12
; BEFORE_LAYER_CHANGE
; Z = 0.24 mm
M117
G92 E0.0

G1 E-4.22 F2100.0
;WIPE_START
M73
G1 F1500.0
G1 X81.8 Y55.512 E-0.28
;WIPE_END
;_SET_FAN_SPEED_CHANGING_LAYER
SET_VELOCITY_LIMIT ACCEL=1500 ACCEL_TO_DECEL=750
M104
M140
; printing object tensile_dogbone_virgin A.1.stp id:0 copy 0
G1 X81.614 Y52.135 Z0.24 F9000.0
G1 E4.5 F2100.0
SET_VELOCITY_LIMIT ACCEL=500 ACCEL_TO_DECEL=250
;TYPE:Outer wall
;WIDTH:0.249999
G1 F600.0
G1 X84.886 Y52.137 E0.03441
G1 X84.886 Y55.885 E0.03942
G1 X81.614 Y55.885 E0.03441
G1 X81.614 Y52.16 E0.03917
G1 X82.583 Y53.049 F9000.0
SET_VELOCITY_LIMIT ACCEL=1500 ACCEL_TO_DECEL=750
;TYPE:Internal solid infill
;WIDTH:0.352846
G1 F600.0
G1 X82.521 Y53.084 E0.00019
G1 X82.583 Y53.12 E0.00019
G1 X82.591 Y53.106 E1e-05
G1 X82.287 Y53.75 F9000.0
;WIDTH:0.249999
G1 F600.0
G1 X83.228 Y52.809 E0.01178
G1 X82.287 Y52.808 E0.00781
G1 X82.287 Y53.725 E0.00757
G1 X82.062 Y54.291 F9000.0
G1 F600.0
G1 X83.769 Y52.585 E0.023
G1 X82.062 Y52.584 E0.01565
G1 X82.062 Y54.266 E0.0154
G1 X81.838 Y54.833 F9000.0
G1 F600.0
G1 X84.31 Y52.361 E0.0343
G1 X81.838 Y52.36 E0.02361
G1 X81.838 Y54.808 E0.02336
G1 X81.803 Y55.84 F9000.0
;WIDTH:0.264954
G1 F600.0
G1 X84.74 Y52.904 E0.04393
G1 X84.74 Y52.565 E0.00221
G1 X81.76 Y55.545 E0.04461
M73
G1 X81.76 Y55.207 E0.00221
G1 X84.785 Y52.182 E0.04532
G1 X83.98 Y54.933 F9000.0
;WIDTH:0.300424
G1 F600.0
G1 X83.929 Y54.963 E0.00012
G1 X83.985 Y54.985 E0.00012
G1 X84.213 Y54.361 F9000.0
;WIDTH:0.249999
G1 F600.0
G1 X83.361 Y55.213 E0.01049
G1 X84.213 Y55.213 E0.00692
G1 X84.213 Y54.386 E0.00667
G1 X84.437 Y53.819 F9000.0
G1 F600.0
G1 X82.82 Y55.437 E0.02169
G1 X84.437 Y55.437 E0.01473
G1 X84.437 Y53.844 E0.01447
G1 X84.661 Y53.278 F9000.0
G1 F600.0
G1 X82.278 Y55.661 E0.03299
G1 X84.661 Y55.661 E0.02269
G1 X84.661 Y53.303 E0.02243
; stop printing object tensile_dogbone_virgin A.1.stp id:0 copy 0
;LAYER_CHANGE
;Z:0.36
;HEIGHT:0.12
; BEFORE_LAYER_CHANGE
; Z = 0.36 mm
M117
G92 E0.0

G1 E-4.36 F2100.0
;WIPE_START
G1 F3000.0
G1 X84.661 Y53.503 E-0.14
;WIPE_END
;_SET_FAN_SPEED_CHANGING_LAYER
; printing object tensile_dogbone_virgin A.1.stp id:0 copy 0
G1 X81.614 Y52.135 Z0.36 F9000.0
G1 E4.5 F2100.0
SET_VELOCITY_LIMIT ACCEL=500 ACCEL_TO_DECEL=250
;TYPE:Outer wall
G1 F600.0
G1 X84.887 Y52.135 E0.03442
G1 X84.887 Y55.885 E0.03944
G1 X81.614 Y55.885 E0.03442
G1 X81.614 Y52.16 E0.03917
M73
G1 X81.659 Y52.713 F9000.0
SET_VELOCITY_LIMIT ACCEL=1500 ACCEL_TO_DECEL=750
;TYPE:Internal solid infill
;WIDTH:0.264955
G1 F600.0
G1 X84.686 Y55.74 E0.04535
G1 X84.741 Y55.74 E9e-05
G1 X84.741 Y55.457 E0.00172
G1 X81.76 Y52.475 E0.04463
G1 X81.76 Y52.281 E0.00095
G1 X81.904 Y52.281 E0.00055
G1 X84.842 Y55.219 E0.04395
G1 X82.583 Y54.901 F9000.0
;WIDTH:0.353156
G1 F600.0
G1 X82.522 Y54.937 E0.00019
G1 X82.583 Y54.972 E0.00019
G1 X82.591 Y54.958 E1e-05
G1 X82.287 Y54.271 F9000.0
;WIDTH:0.249999
G1 F600.0
G1 X82.287 Y55.213 E0.00782
G1 X83.228 Y55.213 E0.00782
G1 X82.304 Y54.288 E0.01154
G1 X82.062 Y53.729 F9000.0
G1 F600.0
G1 X82.062 Y55.437 E0.01566
G1 X83.77 Y55.437 E0.01566
G1 X82.08 Y53.747 E0.02276
G1 X81.838 Y53.188 F9000.0
G1 F600.0
G1 X81.838 Y55.661 E0.02363
G1 X84.311 Y55.661 E0.02363
G1 X81.856 Y53.206 E0.03406
G1 X83.981 Y53.028 F9000.0
;WIDTH:0.301188
G1 F600.0
G1 X83.93 Y53.058 E0.00012
G1 X83.986 Y53.079 E0.00012
G1 X84.214 Y53.661 F9000.0
;WIDTH:0.249999
G1 F600.0
G1 X84.214 Y52.808 E0.00693
G1 X83.361 Y52.808 E0.00693
G1 X84.196 Y53.643 E0.01026
G1 X84.438 Y54.202 F9000.0
G1 F600.0
G1 X84.438 Y52.584 E0.01474
G1 X82.82 Y52.584 E0.01474
G1 X84.421 Y54.185 E0.02145
M73
G1 X84.662 Y54.744 F9000.0
G1 F600.0
G1 X84.662 Y52.36 E0.0227
G1 X82.278 Y52.36 E0.0227
G1 X84.645 Y54.726 E0.03275
; stop printing object tensile_dogbone_virgin A.1.stp id:0 copy 0
;LAYER_CHANGE
;Z:0.48
;HEIGHT:0.12
; BEFORE_LAYER_CHANGE
; Z = 0.48 mm
M117
G92 E0.0

G1 E-4.36 F2100.0
;WIPE_START
G1 F3000.0
G1 X84.503 Y54.585 E-0.14
;WIPE_END
;_SET_FAN_SPEED_CHANGING_LAYER
; printing object tensile_dogbone_virgin A.1.stp id:0 copy 0
G1 X81.614 Y52.135 Z0.48 F9000.0
G1 E4.5 F2100.0
SET_VELOCITY_LIMIT ACCEL=500 ACCEL_TO_DECEL=250
;TYPE:Outer wall
G1 F600.0
G1 X84.888 Y52.135 E0.03443
G1 X84.888 Y55.885 E0.03944
G1 X81.614 Y55.885 E0.03443
G1 X81.614 Y52.16 E0.03917
G1 X82.583 Y53.048 F9000.0
SET_VELOCITY_LIMIT ACCEL=1500 ACCEL_TO_DECEL=750
;TYPE:Internal solid infill
;WIDTH:0.353154
G1 F600.0
G1 X82.522 Y53.084 E0.00019
G1 X82.583 Y53.119 E0.00019
G1 X82.591 Y53.105 E1e-05
G1 X82.287 Y53.75 F9000.0
;WIDTH:0.249999
G1 F600.0
G1 X83.228 Y52.808 E0.01179
G1 X82.287 Y52.808 E0.00782
G1 X82.287 Y53.725 E0.00757
G1 X82.062 Y54.291 F9000.0
G1 F600.0
G1 X83.77 Y52.584 E0.02302
G1 X82.062 Y52.584 E0.01566
G1 X82.062 Y54.266 E0.0154
G1 X81.838 Y54.832 F9000.0
G1 F600.0
G1 X84.311 Y52.36 E0.03432
G1 X81.838 Y52.36 E0.02363
M73
G1 X81.838 Y54.807 E0.02337
G1 X81.803 Y55.84 F9000.0
;WIDTH:0.264954
G1 F600.0
G1 X84.742 Y52.901 E0.04397
G1 X84.742 Y52.563 E0.00221
G1 X81.76 Y55.545 E0.04465
G1 X81.76 Y55.207 E0.00221
G1 X84.787 Y52.18 E0.04535
G1 X83.982 Y54.932 F9000.0
;WIDTH:0.3019
G1 F600.0
G1 X83.93 Y54.962 E0.00012
G1 X83.987 Y54.984 E0.00012
G1 X84.215 Y54.358 F9000.0
;WIDTH:0.249999
G1 F600.0
G1 X83.361 Y55.213 E0.01053
G1 X84.215 Y55.213 E0.00695
G1 X84.215 Y54.383 E0.0067
G1 X84.439 Y53.817 F9000.0
G1 F600.0
G1 X82.82 Y55.437 E0.02173
G1 X84.439 Y55.437 E0.01476
G1 X84.439 Y53.842 E0.0145
G1 X84.664 Y53.276 F9000.0
G1 F600.0
G1 X82.278 Y55.661 E0.03303
G1 X84.664 Y55.661 E0.02271
G1 X84.664 Y53.301 E0.02245
; stop printing object tensile_dogbone_virgin A.1.stp id:0 copy 0


--- PINNING LAYER 5 ---

- PINNING PART part_1 -
; Pin 1 at layer 5 (X6.75 Y2.00 Z0.60)
BLINK_LIGHT BLINK_COUNT=1 ; Call BLINK_LIGHT with custom parameters
G1 F1500.0 E-0.1 ; retract filament before extruding
G91  relative
G1 Z F25.0 ; LIFT
G90  absolute
G1 XY Y2.0 F150.0 ; MOVE TO
G91  relative
G1 Z F10.0 ; DROP slowly for precision
G90  absolute
M83  relative extrusion mode
G1 F5.0 E0.1624 ; extruding material after retraction
; End pin 1 at layer 5

; Pin 2 at layer 5 (X3.25 Y2.00 Z0.60)
BLINK_LIGHT BLINK_COUNT=1 ; Call BLINK_LIGHT with custom parameters
G1 F1500.0 E-0.1 ; retract filament before extruding
G91  relative
G1 Z F25.0 ; LIFT
G90  absolute
G1 XY Y2.0 F150.0 ; MOVE TO
G91  relative
G1 Z F10.0 ; DROP slowly for precision
G90  absolute
M83  relative extrusion mode
G1 F5.0 E0.1624 ; extruding material after retraction
; End pin 2 at layer 5

- PINNING PART part_2 -
; Pin 1 at layer 5 (X16.75 Y12.00 Z0.60)
BLINK_LIGHT BLINK_COUNT=1 ; Call BLINK_LIGHT with custom parameters
G1 F1500.0 E-0.1 ; retract filament before extruding
G91  relative
G1 Z F25.0 ; LIFT
G90  absolute
G1 XY Y12.0 F150.0 ; MOVE TO
G91  relative
G1 Z F10.0 ; DROP slowly for precision
G90  absolute
M83  relative extrusion mode
G1 F5.0 E0.1624 ; extruding material after retraction
; End pin 1 at layer 5

; Pin 2 at layer 5 (X13.25 Y12.00 Z0.60)
BLINK_LIGHT BLINK_COUNT=1 ; Call BLINK_LIGHT with custom parameters
G1 F1500.0 E-0.1 ; retract filament before extruding
G91  relative
G1 Z F25.0 ; LIFT
G90  absolute
G1 XY Y12.0 F150.0 ; MOVE TO
G91  relative
G1 Z F10.0 ; DROP slowly for precision
G90  absolute
M83  relative extrusion mode
G1 F5.0 E0.1624 ; extruding material after retraction
; End pin 2 at layer 5

;LAYER_CHANGE
;Z:0.6
;HEIGHT:0.12
; BEFORE_LAYER_CHANGE
; Z = 0.6 mm
M117
G92 E0.0

G1 E-4.36 F2100.0
;WIPE_START
G1 F3000.0
G1 X84.664 Y53.501 E-0.14
;WIPE_END
;_SET_FAN_SPEED_CHANGING_LAYER
; printing object tensile_dogbone_virgin A.1.stp id:0 copy 0
G1 X81.614 Y52.135 Z0.6 F9000.0
G1 E4.5 F2100.0
SET_VELOCITY_LIMIT ACCEL=500 ACCEL_TO_DECEL=250
;TYPE:Outer wall
G1 F600.0
G1 X84.889 Y52.135 E0.03444
M73
G1 X84.889 Y55.885 E0.03944
G1 X81.614 Y55.885 E0.03444
G1 X81.614 Y52.16 E0.03917
G1 X81.659 Y52.713 F9000.0
SET_VELOCITY_LIMIT ACCEL=1500 ACCEL_TO_DECEL=750
;TYPE:Internal solid infill
;WIDTH:0.264955
G1 F600.0
G1 X84.686 Y55.74 E0.04535
G1 X84.743 Y55.74 E0.0001
G1 X84.743 Y55.459 E0.0017
G1 X81.76 Y52.475 E0.04467
G1 X81.76 Y52.281 E0.00095
G1 X81.904 Y52.281 E0.00055
G1 X84.844 Y55.222 E0.04399
G1 X82.583 Y54.901 F9000.0
;WIDTH:0.353156
G1 F600.0
G1 X82.522 Y54.937 E0.00019
G1 X82.583 Y54.972 E0.00019
G1 X82.591 Y54.958 E1e-05
G1 X82.287 Y54.271 F9000.0
;WIDTH:0.249999
G1 F600.0
G1 X82.287 Y55.213 E0.00782
G1 X83.228 Y55.213 E0.00782
G1 X82.304 Y54.288 E0.01154
G1 X82.062 Y53.729 F9000.0
G1 F600.0
G1 X82.062 Y55.437 E0.01566
G1 X83.77 Y55.437 E0.01566
G1 X82.08 Y53.747 E0.02276
G1 X81.838 Y53.188 F9000.0
G1 F600.0
G1 X81.838 Y55.661 E0.02363
G1 X84.311 Y55.661 E0.02363
G1 X81.856 Y53.206 E0.03406
M73
G1 X83.983 Y53.029 F9000.0
;WIDTH:0.30261
G1 F600.0
G1 X83.931 Y53.059 E0.00012
G1 X83.988 Y53.08 E0.00012
G1 X84.216 Y53.663 F9000.0
;WIDTH:0.249999
G1 F600.0
G1 X84.216 Y52.808 E0.00696
G1 X83.361 Y52.808 E0.00696
G1 X84.199 Y53.646 E0.01029
G1 X84.441 Y54.205 F9000.0
G1 F600.0
G1 X84.441 Y52.584 E0.01477
G1 X82.82 Y52.584 E0.01477
G1 X84.423 Y54.187 E0.02148
G1 X84.665 Y54.746 F9000.0
G1 F600.0
G1 X84.665 Y52.36 E0.02273
G1 X82.278 Y52.36 E0.02273
G1 X84.647 Y54.729 E0.03278
; stop printing object tensile_dogbone_virgin A.1.stp id:0 copy 0
;LAYER_CHANGE
;Z:0.72
;HEIGHT:0.12
; BEFORE_LAYER_CHANGE
; Z = 0.72 mm
M117
G92 E0.0

G1 E-4.36 F2100.0
;WIPE_START
G1 F3000.0
G1 X84.506 Y54.587 E-0.14
;WIPE_END
;_SET_FAN_SPEED_CHANGING_LAYER
; printing object tensile_dogbone_virgin A.1.stp id:0 copy 0
G1 X81.614 Y52.135 Z0.72 F9000.0
G1 E4.5 F2100.0
SET_VELOCITY_LIMIT ACCEL=500 ACCEL_TO_DECEL=250
;TYPE:Outer wall
G1 F600.0
G1 X84.89 Y52.137 E0.03446
G1 X84.89 Y55.885 E0.03942
G1 X81.614 Y55.885 E0.03446
G1 X81.614 Y52.16 E0.03917
G1 X82.583 Y53.049 F9000.0
SET_VELOCITY_LIMIT ACCEL=1500 ACCEL_TO_DECEL=750
;TYPE:Internal solid infill
;WIDTH:0.352906
G1 F600.0
G1 X82.522 Y53.084 E0.00019
G1 X82.583 Y53.12 E0.00019
G1 X82.591 Y53.106 E1e-05
G1 X82.287 Y53.75 F9000.0
;WIDTH:0.249999
G1 F600.0
G1 X83.228 Y52.809 E0.01178
G1 X82.287 Y52.808 E0.00782
G1 X82.287 Y53.725 E0.00757
G1 X82.062 Y54.291 F9000.0
G1 F600.0
G1 X83.769 Y52.585 E0.023
M73
G1 X82.062 Y52.584 E0.01565
G1 X82.062 Y54.266 E0.0154
G1 X81.838 Y54.833 F9000.0
G1 F600.0
G1 X84.31 Y52.361 E0.0343
G1 X81.838 Y52.36 E0.02361
G1 X81.838 Y54.808 E0.02336
G1 X81.803 Y55.84 F9000.0
;WIDTH:0.264955
G1 F600.0
G1 X84.745 Y52.899 E0.044
G1 X84.745 Y52.56 E0.00221
G1 X81.76 Y55.545 E0.04468
G1 X81.76 Y55.207 E0.00221
G1 X84.785 Y52.182 E0.04532
G1 X83.984 Y54.932 F9000.0
;WIDTH:0.303276
G1 F600.0
G1 X83.932 Y54.962 E0.00012
G1 X83.989 Y54.983 E0.00012
G1 X84.218 Y54.356 F9000.0
;WIDTH:0.249999
G1 F600.0
G1 X83.361 Y55.213 E0.01056
G1 X84.218 Y55.213 E0.00697
G1 X84.218 Y54.381 E0.00672
G1 X84.442 Y53.815 F9000.0
G1 F600.0
G1 X82.82 Y55.437 E0.02176
G1 X84.442 Y55.437 E0.01478
G1 X84.442 Y53.84 E0.01452
G1 X84.666 Y53.273 F9000.0
G1 F600.0
G1 X82.278 Y55.661 E0.03306
G1 X84.666 Y55.661 E0.02274
M73
G1 X84.666 Y53.298 E0.02248
; stop printing object tensile_dogbone_virgin A.1.stp id:0 copy 0
;LAYER_CHANGE
;Z:0.84
;HEIGHT:0.12
; BEFORE_LAYER_CHANGE
; Z = 0.84 mm
M117
G92 E0.0

G1 E-4.36 F2100.0
;WIPE_START
G1 F3000.0
G1 X84.666 Y53.498 E-0.14
;WIPE_END
;_SET_FAN_SPEED_CHANGING_LAYER
; printing object tensile_dogbone_virgin A.1.stp id:0 copy 0
G1 X81.614 Y52.135 Z0.84 F9000.0
G1 E4.5 F2100.0
SET_VELOCITY_LIMIT ACCEL=500 ACCEL_TO_DECEL=250
;TYPE:Outer wall
G1 F600.0
G1 X84.892 Y52.135 E0.03447
G1 X84.892 Y55.885 E0.03944
G1 X81.614 Y55.885 E0.03447
G1 X81.614 Y52.16 E0.03917
G1 X81.659 Y52.713 F9000.0
SET_VELOCITY_LIMIT ACCEL=1500 ACCEL_TO_DECEL=750
;TYPE:Internal solid infill
;WIDTH:0.264955
G1 F600.0
G1 X84.686 Y55.74 E0.04535
G1 X84.746 Y55.74 E0.0001
G1 X84.746 Y55.461 E0.00168
G1 X81.76 Y52.475 E0.0447
G1 X81.76 Y52.281 E0.00095
G1 X81.904 Y52.281 E0.00055
G1 X84.847 Y55.224 E0.04402
G1 X82.583 Y54.901 F9000.0
;WIDTH:0.353156
G1 F600.0
G1 X82.522 Y54.937 E0.00019
G1 X82.583 Y54.972 E0.00019
G1 X82.591 Y54.958 E1e-05
G1 X82.287 Y54.271 F9000.0
;WIDTH:0.249999
G1 F600.0
G1 X82.287 Y55.213 E0.00782
G1 X83.228 Y55.213 E0.00782
G1 X82.304 Y54.288 E0.01154
G1 X82.062 Y53.729 F9000.0
G1 F600.0
G1 X82.062 Y55.437 E0.01566
G1 X83.77 Y55.437 E0.01566
M73
G1 X82.08 Y53.747 E0.02276
G1 X81.838 Y53.188 F9000.0
